images/send-an-email@SVG.svg

<?xml version="1.0" encoding="UTF-8"?>
<svg width="1024px" height="1024px" viewBox="0 0 1024 1024" version="1.1" xmlns="http://www.w3.org/2000/svg" xmlns:xlink="http://www.w3.org/1999/xlink">
    <title>send-an-email@SVG</title>
    <defs>
        <linearGradient x1="50%" y1="0%" x2="50%" y2="100%" id="linearGradient-1">
            <stop stop-color="#1D63F0" offset="0%"></stop>
            <stop stop-color="#1AD5FD" offset="100%"></stop>
        </linearGradient>
        <path d="M74.3526708,6.23399665e-16 L665.647329,6.63127345e-15 C691.501373,-3.85296084e-15 700.876674,2.69194272 710.328525,7.74684841 C719.780377,12.8017541 727.198246,20.2196227 732.253152,29.6714746 C737.308057,39.1233264 740,48.4986273 740,74.3526708 L740,407.647329 C740,433.501373 737.308057,442.876674 732.253152,452.328525 C727.198246,461.780377 719.780377,469.198246 710.328525,474.253152 C700.876674,479.308057 691.501373,482 665.647329,482 L74.3526708,482 C48.4986273,482 39.1233264,479.308057 29.6714746,474.253152 C20.2196227,469.198246 12.8017541,461.780377 7.74684841,452.328525 C2.69194272,442.876674 -9.44004438e-16,433.501373 1.62471196e-15,407.647329 L5.62996115e-15,74.3526708 C-3.27116956e-15,48.4986273 2.69194272,39.1233264 7.74684841,29.6714746 C12.8017541,20.2196227 20.2196227,12.8017541 29.6714746,7.74684841 C39.1233264,2.69194272 48.4986273,-3.62213158e-16 74.3526708,6.23399665e-16 Z" id="path-2"></path>
    </defs>
    <g id="send-an-email" stroke="none" stroke-width="1" fill="none" fill-rule="evenodd">
        <rect id="Origin-Color" fill="url(#linearGradient-1)" x="0" y="0" width="1024" height="1024"></rect>
        <g id="Apple-Mail" transform="translate(142.000000, 271.000000)">
            <mask id="mask-3" fill="white">
                <use xlink:href="#path-2"></use>
            </mask>
            <use id="Rectangle" fill="#D8D8D8" opacity="0" xlink:href="#path-2"></use>
            <path d="M726.433333,480.765509 C725.2,480.765509 722.733333,482 721.5,482 L18.5,482 C17.2666667,482 14.8,482 13.5666667,480.765509 L233.1,261.026181 L279.966667,309.171315 C330.533333,361.01992 410.7,361.01992 461.266667,309.171315 L508.133333,261.026181 L726.433333,480.765509 Z M740,457.310188 L740,21.5350028 C740,19.0660216 740,16.5970404 738.766667,15.3625498 C737.533333,17.831531 520.466667,242.508822 520.466667,242.508822 L740,462.24815 L740,457.310188 Z M0,458.544678 L0,24.0039841 C0,21.5350028 0,19.0660216 1.23333333,17.831531 C2.46666667,20.3005122 219.533333,244.977803 219.533333,244.977803 L1.23333333,463.482641 C0,462.24815 0,459.779169 0,458.544678 Z M447.7,286.950484 C404.533333,330.157655 335.466667,330.157655 293.533333,286.950484 L13.5634848,0.548662493 C12.3333333,-0.685828116 727.666667,0.548662493 727.666667,0.548662493 L447.7,286.950484 Z" id="Shape" fill="#FFFFFF" fill-rule="nonzero" mask="url(#mask-3)"></path>
        </g>
    </g>
</svg>

<svg xmlns="http://www.w3.org/2000/svg" xmlns:xlink="http://www.w3.org/1999/xlink" width="1024" height="1024" viewBox="0 0 1024 1024"><title>send-an-email@SVG</title><defs><linearGradient id="a" x1="50%" x2="50%" y1="0%" y2="100%"><stop offset="0%" stop-color="#1D63F0"/><stop offset="100%" stop-color="#1AD5FD"/></linearGradient><path id="b" d="M74.353 0h591.294c25.854 0 35.23 2.692 44.682 7.747 9.451 5.055 16.87 12.473 21.924 21.924C737.308 39.123 740 48.5 740 74.353v333.294c0 25.854-2.692 35.23-7.747 44.682-5.055 9.451-12.473 16.87-21.924 21.924-9.452 5.055-18.828 7.747-44.682 7.747H74.353c-25.854 0-35.23-2.692-44.682-7.747-9.451-5.055-16.87-12.473-21.924-21.924C2.692 442.877 0 433.5 0 407.647V74.353c0-25.854 2.692-35.23 7.747-44.682C12.802 20.22 20.22 12.801 29.67 7.747 39.123 2.692 48.5 0 74.353 0z"/></defs><g fill="none" fill-rule="evenodd"><path fill="url(#a)" d="M0 0h1024v1024H0z"/><g transform="translate(142 271)"><mask id="c" fill="#fff"><use xlink:href="#b"/></mask><path fill="#FFF" fill-rule="nonzero" d="M726.433 480.766c-1.233 0-3.7 1.234-4.933 1.234h-703c-1.233 0-3.7 0-4.933-1.234L233.1 261.026l46.867 48.145c50.566 51.849 130.733 51.849 181.3 0l46.866-48.145 218.3 219.74zM740 457.31V21.535c0-2.469 0-4.938-1.233-6.172-1.234 2.469-218.3 227.146-218.3 227.146L740 462.249v-4.939zM0 458.545V24.004c0-2.469 0-4.938 1.233-6.172 1.234 2.469 218.3 227.146 218.3 227.146L1.233 463.483C0 462.248 0 459.779 0 458.545zM447.7 286.95c-43.167 43.208-112.233 43.208-154.167 0L13.563.55c-1.23-1.235 714.104 0 714.104 0L447.7 286.95z" mask="url(#c)"/></g></g></svg>
